; generated by Slic3r 0.8.4 on 2012-07-28 at 18:51:48

; layer_height = 0.4
; perimeters = 3
; solid_layers = 3
; fill_density = 0.4
; nozzle_diameter = 0.5
; filament_diameter = 1.75
; extrusion_multiplier = 1
; perimeter_speed = 30
; infill_speed = 60
; travel_speed = 130
; scale = 1
; single wall width = 0.53mm

M104 S185 ; set temperature
G28 ; home all axes
M109 S185 ; wait for temperature to be reached
G90 ; use absolute coordinates
G21 ; set units to millimeters
G92 E0 ; reset extrusion distance
M82 ; use absolute distances for extrusion
G1 Z0.400 F7800.000
G1 X110.726 Y100.644
G1 F1800.000 E1.00000
G1 X117.166 Y90.144 F540.000 E2.06443
G1 X117.316 Y89.944 E2.08604
G1 X117.656 Y89.544 E2.13140
G1 X118.216 Y89.014 E2.19803
G1 X118.416 Y88.844 E2.22072
G1 X118.836 Y88.544 E2.26532
G1 X119.276 Y88.274 E2.30993
G1 X119.736 Y88.044 E2.35437
G1 X120.216 Y87.844 E2.39931
G1 X120.966 Y87.624 E2.46685
G1 X121.726 Y87.494 E2.53348
G1 X122.246 Y87.464 E2.57849
G1 X122.766 Y87.464 E2.62343
G1 X123.276 Y87.514 E2.66771
G1 X123.786 Y87.604 E2.71247
G1 X124.286 Y87.724 E2.75690
G1 X124.776 Y87.894 E2.80172
G1 X125.486 Y88.214 E2.86902
G1 X125.936 Y88.474 E2.91393
G1 X126.566 Y88.934 E2.98134
G1 X127.136 Y89.454 E3.04801
G1 X127.636 Y90.044 E3.11485
G1 X127.786 Y90.254 E3.13715
G1 X128.196 Y90.924 E3.20503
G1 X128.516 Y91.624 E3.27154
G1 X128.606 Y91.874 E3.29450
G1 X128.806 Y92.614 E3.36074
G1 X128.896 Y93.124 E3.40549
G1 X128.946 Y93.644 E3.45064
G1 X128.936 Y94.414 E3.51718
G1 X128.916 Y94.674 E3.53972
G1 X128.786 Y95.444 E3.60720
G1 X128.566 Y96.184 E3.67391
G1 X128.476 Y96.424 E3.69606
G1 X128.136 Y97.124 E3.76331
G1 X125.696 Y101.164 E4.17116
G1 X125.686 Y101.174 E4.17239
G1 X123.636 Y104.534 E4.51252
G1 X123.626 Y104.564 E4.51525
G1 X120.996 Y108.794 E4.94568
G1 X120.676 Y109.194 E4.98995
G1 X120.136 Y109.754 E5.05718
G1 X119.526 Y110.244 E5.12479
G1 X118.876 Y110.654 E5.19120
G1 X118.176 Y110.984 E5.25808
G1 X117.686 Y111.164 E5.30319
G1 X117.186 Y111.294 E5.34783
G1 X116.676 Y111.394 E5.39274
G1 X116.166 Y111.444 E5.43703
G1 X115.906 Y111.454 E5.45951
G1 X115.386 Y111.454 E5.50445
G1 X114.876 Y111.404 E5.54873
G1 X114.106 Y111.254 E5.61652
G1 X113.366 Y111.014 E5.68375
G1 X112.666 Y110.694 E5.75026
G1 X112.006 Y110.284 E5.81740
G1 X111.796 Y110.134 E5.83970
G1 X111.396 Y109.804 E5.88452
G1 X110.846 Y109.254 E5.95173
G1 X110.526 Y108.854 E5.99600
G1 X110.226 Y108.424 E6.04131
G1 X109.966 Y107.974 E6.08622
G1 X109.646 Y107.274 E6.15273
G1 X109.416 Y106.534 E6.21969
G1 X109.306 Y106.024 E6.26478
G1 X109.226 Y105.254 E6.33168
G1 X109.236 Y104.474 E6.39909
G1 X109.336 Y103.704 E6.46619
G1 X109.456 Y103.204 E6.51062
G1 X109.706 Y102.474 E6.57730
G1 X109.926 Y101.994 E6.62293
G1 X110.685 Y100.712 E6.75173
G1 F1800.000 E5.75173
G92 E0
G1 X120.130 Y97.793 F7800.000
G1 F1800.000 E1.00000
G1 X122.444 Y93.980 F540.000 E1.38542
G1 F1800.000 E0.38542
G92 E0
G1 X120.130 Y97.793 F7800.000
G1 F1800.000 E1.00000
G1 X118.080 Y101.152 F540.000 E1.34007
G1 X117.529 Y102.045 E1.43076
G1 X116.978 Y102.938 E1.52144
G1 X116.289 Y104.054 E1.63480
G1 X115.746 Y104.953 E1.72553
G1 F1800.000 E0.72553
G92 E0
G1 Z0.800 F7800.000
G1 X120.406 Y97.352
G1 F1800.000 E1.00000
G1 X122.724 Y93.550 F1800.000 E1.38478
G1 F1800.000 E0.38478
G92 E0
G1 X120.406 Y97.352 F7800.000
G1 F1800.000 E1.00000
G1 X118.357 Y100.705 F1800.000 E1.33951
G1 X117.807 Y101.596 E1.43004
G1 X117.256 Y102.487 E1.52058
G1 X116.567 Y103.601 E1.63375
G1 X115.613 Y105.167 E1.79223
G1 F1800.000 E0.79223
G92 E0
G1 Z1.200 F7800.000
G1 X120.819 Y96.690
G1 F1800.000 E1.00000
G1 X123.139 Y92.897 F1800.000 E1.38425
G1 F1800.000 E0.38425
G92 E0
G1 X120.819 Y96.690 F7800.000
G1 F1800.000 E1.00000
G1 X118.772 Y100.037 F1800.000 E1.33904
G1 X118.221 Y100.926 E1.42945
G1 X117.671 Y101.816 E1.51987
G1 X116.983 Y102.928 E1.63288
G1 X115.617 Y105.160 E1.85897
G1 F1800.000 E0.85897
G92 E0
G1 Z1.600 F7800.000
G1 X121.232 Y96.029
G1 F1800.000 E1.00000
G1 X123.555 Y92.243 F1800.000 E1.38381
G1 F1800.000 E0.38381
G92 E0
G1 X121.232 Y96.029 F7800.000
G1 F1800.000 E1.00000
G1 X119.183 Y99.369 F1800.000 E1.33865
G1 X118.636 Y100.259 E1.42896
G1 X118.085 Y101.148 E1.51927
G1 X117.397 Y102.258 E1.63215
G1 X115.759 Y104.932 E1.90316
G1 F1800.000 E0.90316
G92 E0
G1 Z2.000 F7800.000
G1 X118.656 Y100.054
G1 F1800.000 E1.00000
G1 X118.781 Y100.045 F1800.000 E1.01078
G1 X118.792 Y99.835 E1.02887
G1 X118.921 Y99.825 E1.04007
G1 X118.925 Y99.616 E1.05810
G1 X119.062 Y99.605 E1.06995
G1 X119.058 Y99.397 E1.08793
G1 X119.202 Y99.384 E1.10043
G1 X119.191 Y99.177 E1.11838
G1 X118.656 Y100.054 F7800.000
G1 X118.509 Y100.490 F1800.000 E1.15814
G1 X118.385 Y100.495 E1.16888
G1 X118.373 Y100.713 E1.18768
G1 X118.249 Y100.716 E1.19840
G1 X118.237 Y100.935 E1.21739
G1 X118.113 Y100.937 E1.22809
G1 X118.101 Y101.158 E1.24726
G1 X117.977 Y101.157 E1.25796
G1 X117.965 Y101.381 E1.27731
G1 X117.841 Y101.378 E1.28800
G1 X117.829 Y101.604 E1.30753
G1 F1800.000 E0.30753
G92 E0
G1 Z2.400 F7800.000
G1 X117.691 Y101.823
G1 F1800.000 E1.00000
G1 X117.714 Y101.594 F1800.000 E1.01995
G1 X117.828 Y101.601 E1.02979
G1 X117.850 Y101.373 E1.04959
G1 X117.964 Y101.379 E1.05944
G1 X117.986 Y101.152 E1.07910
G1 X118.100 Y101.156 E1.08896
G1 X118.122 Y100.931 E1.10847
G1 X118.236 Y100.934 E1.11834
G1 X118.258 Y100.711 E1.13771
G1 X118.372 Y100.711 E1.14759
G1 X118.394 Y100.490 E1.16681
G1 X118.508 Y100.489 E1.17671
G1 X118.802 Y99.826 E1.23933
G1 X118.919 Y99.823 E1.24944
G1 X118.940 Y99.604 E1.26851
G1 X119.057 Y99.602 E1.27860
G1 X119.079 Y99.381 E1.29782
G1 X119.195 Y99.381 E1.30789
G1 X119.217 Y99.158 E1.32726
G1 X119.333 Y99.160 E1.33732
G1 X119.355 Y98.935 E1.35683
G1 X119.472 Y98.938 E1.36688
G1 X119.494 Y98.712 E1.38654
G1 X119.610 Y98.717 E1.39658
G1 X119.632 Y98.489 E1.41639
G1 X119.748 Y98.496 E1.42642
G1 X119.770 Y98.266 E1.44637
G1 X119.886 Y98.275 E1.45640
G1 X119.909 Y98.043 E1.47650
G1 F1800.000 E0.47650
G92 E0
G1 X117.691 Y101.823 F7800.000
G1 F1800.000 E1.00000
G1 X117.578 Y101.814 F1800.000 E1.00984
G1 X117.555 Y102.046 E1.02993
G1 F1800.000 E0.02993
G92 E0
G1 Z2.800 F7800.000
G1 X117.962 Y101.376
G1 F1800.000 E1.00000
G1 X117.996 Y101.147 F1800.000 E1.01997
G1 X118.098 Y101.154 E1.02886
G1 X118.132 Y100.927 E1.04872
G1 X118.235 Y100.932 E1.05762
G1 X118.812 Y99.822 E1.16577
G1 X119.056 Y99.602 E1.19414
G1 X119.089 Y99.377 E1.21377
G1 X119.194 Y99.381 E1.22285
G1 X119.227 Y99.155 E1.24260
G1 X119.332 Y99.159 E1.25167
G1 X119.365 Y98.932 E1.27153
G1 X119.470 Y98.938 E1.28059
G1 X119.504 Y98.710 E1.30057
G1 X119.608 Y98.717 E1.30962
G1 X119.642 Y98.487 E1.32971
G1 X119.746 Y98.496 E1.33875
G1 X119.780 Y98.265 E1.35895
G1 X119.885 Y98.275 E1.36799
G1 X119.919 Y98.043 E1.38831
G1 X120.023 Y98.054 E1.39734
G1 X120.057 Y97.820 E1.41777
G1 X120.161 Y97.833 E1.42680
G1 X120.195 Y97.598 E1.44734
G1 F1800.000 E0.44734
G92 E0
G1 X117.962 Y101.376 F7800.000
G1 F1800.000 E1.00000
G1 X117.860 Y101.368 F1800.000 E1.00888
G1 X117.826 Y101.598 E1.02896
G1 X117.723 Y101.589 E1.03784
G1 X117.689 Y101.820 E1.05803
G1 X117.587 Y101.810 E1.06690
G1 X117.553 Y102.042 E1.08721
G1 X117.451 Y102.030 E1.09607
G1 X117.417 Y102.264 E1.11649
G1 X117.315 Y102.251 E1.12535
G1 X117.281 Y102.486 E1.14588
G1 F1800.000 E0.14588
G92 E0
G1 Z3.200 F7800.000
G1 X118.505 Y100.486
G1 F1800.000 E1.00000
G1 X118.823 Y99.817 F1800.000 E1.06400
G1 X119.192 Y99.380 E1.11343
G1 X119.238 Y99.152 E1.13354
G1 X119.330 Y99.159 E1.14149
G1 X119.376 Y98.930 E1.16170
G1 X119.468 Y98.938 E1.16964
G1 X119.515 Y98.708 E1.18992
G1 X119.606 Y98.717 E1.19785
G1 X119.653 Y98.486 E1.21823
G1 X119.744 Y98.496 E1.22615
G1 X119.791 Y98.264 E1.24661
G1 X119.882 Y98.275 E1.25452
G1 X119.930 Y98.042 E1.27507
G1 X120.020 Y98.054 E1.28298
G1 X120.068 Y97.820 E1.30361
G1 X120.158 Y97.834 E1.31151
G1 X120.206 Y97.599 E1.33223
G1 X120.296 Y97.613 E1.34013
G1 X120.344 Y97.377 E1.36094
G1 X120.435 Y97.392 E1.36883
G1 X120.483 Y97.155 E1.38972
G1 X120.573 Y97.171 E1.39761
G1 X120.621 Y96.933 E1.41859
G1 X120.711 Y96.950 E1.42648
G1 X120.759 Y96.711 E1.44754
G1 F1800.000 E0.44754
G92 E0
G1 X118.505 Y100.486 F7800.000
G1 F1800.000 E1.00000
G1 X118.415 Y100.480 F1800.000 E1.00781
G1 X117.687 Y101.817 E1.13931
G1 X117.598 Y101.806 E1.14706
G1 X117.005 Y102.926 E1.25659
G1 X116.917 Y102.910 E1.26432
G1 X116.869 Y103.148 E1.28529
G1 F1800.000 E0.28529
G92 E0
G1 Z3.600 F7800.000
G1 X119.189 Y99.378
G1 F1800.000 E1.00000
G1 X121.462 Y95.606 F1800.000 E1.38057
G1 F1800.000 E0.38057
G92 E0
G1 X119.189 Y99.378 F7800.000
G1 F1800.000 E1.00000
G1 X119.112 Y99.371 F1800.000 E1.00667
G1 X117.137 Y102.699 E1.34113
G1 X116.592 Y103.586 E1.43109
G1 X116.383 Y103.790 E1.45634
G1 X116.246 Y104.011 E1.47877
G1 X116.046 Y104.472 E1.52222
G1 F1800.000 E0.52222
G92 E0
G1 Z4.000 F7800.000
G1 X120.151 Y97.832
G1 F1800.000 E1.00000
G1 X122.441 Y94.063 F1800.000 E1.38112
G1 F1800.000 E0.38112
G92 E0
G1 X120.151 Y97.832 F7800.000
G1 F1800.000 E1.00000
G1 X120.092 Y97.821 F1800.000 E1.00512
G1 X116.122 Y104.229 E1.65661
G1 X115.304 Y105.555 E1.79123
G1 X115.085 Y106.015 E1.83526
G1 F1800.000 E0.83526
G92 E0
G1 Z4.400 F7800.000
G1 X115.078 Y106.007
G1 F1800.000 E1.00000
G1 X123.836 Y91.862 F1800.000 E2.43766
G1 F1800.000 E1.43766
G92 E0
G1 X115.078 Y106.007 F7800.000
G1 F1800.000 E1.00000
G1 X114.224 Y107.321 F1800.000 E1.13540
G1 X113.849 Y107.998 E1.20231
G1 X113.815 Y107.984 E1.20552
G1 X113.713 Y108.220 E1.22771
G1 F1800.000 E0.22771
G92 E0
G1 Z4.800 F7800.000
G1 X116.983 Y102.904
G1 F1800.000 E1.00000
G1 X125.782 Y88.786 F1800.000 E2.43762
G1 F1800.000 E1.43762
G92 E0
G1 X116.983 Y102.904 F7800.000
G1 F1800.000 E1.00000
G1 X111.916 Y111.077 F1800.000 E1.83101
G1 X111.792 Y111.305 E1.85341
G1 F1800.000 E0.85341
G92 E0
G1 Z5.200 F7800.000
G1 X118.617 Y100.247
G1 F1800.000 E1.00000
G1 X127.448 Y86.154 F1800.000 E2.43721
G1 F1800.000 E1.43721
G92 E0
G1 X118.617 Y100.247 F7800.000
G1 F1800.000 E1.00000
G1 X116.295 Y104.004 F1800.000 E1.38165
G1 X116.158 Y104.225 E1.40410
G1 X115.338 Y105.550 E1.53881
G1 X115.202 Y105.771 E1.56126
G1 X114.792 Y106.434 E1.62861
G1 X114.655 Y106.655 E1.65106
G1 X114.382 Y107.097 E1.69596
G1 X113.699 Y108.202 E1.80821
G1 X113.289 Y108.865 E1.87556
G1 X110.422 Y113.507 E2.34702
G1 F1800.000 E1.34702
G92 E0
G1 Z5.600 F7800.000
G1 X119.032 Y99.588
G1 F1800.000 E1.00000
G1 X127.865 Y85.502 F1800.000 E2.43679
G1 F1800.000 E1.43679
G92 E0
G1 X119.032 Y99.588 F7800.000
G1 F1800.000 E1.00000
G1 X116.570 Y103.561 F1800.000 E1.40393
G1 X115.750 Y104.886 E1.53858
G1 X115.613 Y105.107 E1.56103
G1 X115.204 Y105.770 E1.62835
G1 X114.520 Y106.874 E1.74057
G1 X113.701 Y108.199 E1.87522
G1 X110.014 Y114.164 E2.48117
G1 F1800.000 E1.48117
G92 E0
G1 Z6.000 F7800.000
G1 X119.448 Y98.929
G1 F1800.000 E1.00000
G1 X128.282 Y84.850 F1800.000 E2.43635
G1 F1800.000 E1.43635
G92 E0
G1 X119.448 Y98.929 F7800.000
G1 F1800.000 E1.00000
G1 X116.982 Y102.899 F1800.000 E1.40383
G1 X116.162 Y104.223 E1.53844
G1 X116.025 Y104.444 E1.56088
G1 X115.615 Y105.106 E1.62818
G1 X114.932 Y106.210 E1.74036
G1 X114.112 Y107.534 E1.87497
G1 X109.605 Y114.821 E2.61535
G1 F1800.000 E1.61535
G92 E0
G1 Z6.400 F7800.000
G1 X119.864 Y98.271
G1 F1800.000 E1.00000
G1 X128.699 Y84.198 F1800.000 E2.43595
G1 F1800.000 E1.43595
G92 E0
G1 X119.864 Y98.271 F7800.000
G1 F1800.000 E1.00000
G1 X117.393 Y102.237 F1800.000 E1.40374
G1 X116.573 Y103.561 E1.53831
G1 X116.437 Y103.781 E1.56074
G1 X116.027 Y104.443 E1.62803
G1 X115.344 Y105.547 E1.74018
G1 X114.524 Y106.871 E1.87475
G1 X109.741 Y114.594 E2.65977
G1 X109.196 Y115.477 E2.74948
G1 F1800.000 E1.74948
G92 E0
G1 Z6.800 F7800.000
G1 X120.280 Y97.614
G1 F1800.000 E1.00000
G1 X129.115 Y83.546 F1800.000 E2.43558
G1 F1800.000 E1.43558
G92 E0
G1 X120.280 Y97.614 F7800.000
G1 F1800.000 E1.00000
G1 X117.805 Y101.575 F1800.000 E1.40366
G1 X116.985 Y102.899 E1.53820
G1 X116.849 Y103.119 E1.56062
G1 X116.439 Y103.781 E1.62789
G1 X115.755 Y104.884 E1.74001
G1 X114.935 Y106.207 E1.87455
G1 X110.152 Y113.928 E2.65935
G1 X108.787 Y116.134 E2.88359
G1 F1800.000 E1.88359
G92 E0
G1 Z7.200 F7800.000
G1 X120.696 Y96.957
G1 F1800.000 E1.00000
G1 X129.532 Y82.894 F1800.000 E2.43523
G1 F1800.000 E1.43523
G92 E0
G1 X120.696 Y96.957 F7800.000
G1 F1800.000 E1.00000
G1 X118.217 Y100.915 F1800.000 E1.40359
G1 X117.397 Y102.238 E1.53810
G1 X117.261 Y102.458 E1.56051
G1 X116.851 Y103.120 E1.62777
G1 X116.167 Y104.222 E1.73985
G1 X115.347 Y105.545 E1.87436
G1 X110.564 Y113.262 E2.65898
G1 X108.379 Y116.791 E3.01766
G1 F1800.000 E2.01766
G92 E0
G1 Z7.600 F7800.000
G1 X121.113 Y96.300
G1 F1800.000 E1.00000
G1 X129.949 Y82.242 F1800.000 E2.43491
G1 F1800.000 E1.43491
G92 E0
G1 X121.113 Y96.300 F7800.000
G1 F1800.000 E1.00000
G1 X118.629 Y100.254 F1800.000 E1.40353
G1 X117.809 Y101.577 E1.53800
G1 X117.673 Y101.797 E1.56042
G1 X117.263 Y102.459 E1.62765
G1 X116.579 Y103.561 E1.73972
G1 X115.759 Y104.883 E1.87419
G1 X110.975 Y112.598 E2.65863
G1 X107.970 Y117.448 E3.15171
G1 F1800.000 E2.15171
G92 E0
G1 Z8.000 F7800.000
G1 X121.422 Y95.815
G1 F1800.000 E1.00000
G1 X130.363 Y81.593 F1800.000 E2.45169
G1 F1800.000 E1.45169
G92 E0
G1 X121.422 Y95.815 F7800.000
G1 F1800.000 E1.00000
G1 X111.022 Y112.523 F1800.000 E2.70072
G1 X108.256 Y116.983 E3.15421
G1 X107.979 Y117.429 E3.19956
G1 X107.702 Y117.875 E3.24491
G1 X107.427 Y118.321 E3.29026
G1 F1800.000 E2.29026
G92 E0
G1 Z8.400 F7800.000
G1 X121.842 Y95.153
G1 F1800.000 E1.00000
G1 X130.780 Y80.941 F1800.000 E2.45082
G1 F1800.000 E1.45082
G92 E0
G1 X121.842 Y95.153 F7800.000
G1 F1800.000 E1.00000
G1 X111.441 Y111.847 F1800.000 E2.69973
G1 X108.676 Y116.304 E3.15294
G1 X108.400 Y116.749 E3.19827
G1 X108.123 Y117.195 E3.24359
G1 X107.708 Y117.864 E3.31157
G1 X107.018 Y118.978 E3.42488
G1 F1800.000 E2.42488
G92 E0
G1 Z8.800 F7800.000
G1 X122.122 Y94.713
G1 F1800.000 E1.00000
G1 X131.057 Y80.511 F1800.000 E2.45000
G1 F1800.000 E1.45000
G92 E0
G1 X122.122 Y94.713 F7800.000
G1 F1800.000 E1.00000
G1 X111.722 Y111.396 F1800.000 E2.69879
G1 X108.958 Y115.849 E3.15176
G1 X108.682 Y116.295 E3.19705
G1 X108.405 Y116.740 E3.24235
G1 X107.991 Y117.408 E3.31030
G1 X106.609 Y119.635 E3.53678
G1 F1800.000 E2.53678
G92 E0
G1 Z9.200 F7800.000
G1 X122.542 Y94.053
G1 F1800.000 E1.00000
G1 X131.474 Y79.859 F1800.000 E2.44924
G1 F1800.000 E1.44924
G92 E0
G1 X122.542 Y94.053 F7800.000
G1 F1800.000 E1.00000
G1 X112.141 Y110.722 F1800.000 E2.69793
G1 X106.476 Y119.847 E3.62602
G1 X106.338 Y120.069 E3.64866
G1 X106.200 Y120.292 E3.67129
G1 F1800.000 E2.67129
G92 E0
G1 Z9.600 F7800.000
G1 X122.822 Y93.614
G1 F1800.000 E1.00000
G1 X131.751 Y79.428 F1800.000 E2.44853
G1 F1800.000 E1.44853
G92 E0
G1 X122.822 Y93.614 F7800.000
G1 F1800.000 E1.00000
G1 X112.422 Y110.273 F1800.000 E2.69712
G1 X106.758 Y119.392 E3.62475
G1 X106.067 Y120.504 E3.73787
G1 X105.929 Y120.726 E3.76050
G1 X105.791 Y120.949 E3.78312
G1 X105.791 Y120.949 E3.78312
G1 F1800.000 E2.78312
G92 E0
G1 Z10.000 F7800.000
G1 X122.963 Y93.397
G1 F1800.000 E1.00000
G1 X131.889 Y79.218 F1800.000 E2.44786
G1 F1800.000 E1.44786
G92 E0
G1 X122.963 Y93.397 F7800.000
G1 F1800.000 E1.00000
G1 X112.563 Y110.046 F1800.000 E2.69635
G1 X106.901 Y119.160 E3.62355
G1 X106.211 Y120.272 E3.73662
G1 X105.520 Y121.383 E3.84969
G1 X105.383 Y121.606 E3.87231
G1 F1800.000 E2.87231
G92 E0
G1 Z10.400 F7800.000
G1 X123.103 Y93.181
G1 F1800.000 E1.00000
G1 X132.027 Y79.009 F1800.000 E2.44723
G1 F1800.000 E1.44723
G92 E0
G1 X123.103 Y93.181 F7800.000
G1 F1800.000 E1.00000
G1 X112.705 Y109.820 F1800.000 E2.69562
G1 X107.044 Y118.930 E3.62241
G1 X106.354 Y120.040 E3.73544
G1 X105.664 Y121.151 E3.84846
G1 X105.387 Y121.596 E3.89367
G1 X105.250 Y121.818 E3.91628
G1 F1800.000 E2.91628
G92 E0
G1 Z10.800 F7800.000
G1 X123.105 Y93.185
G1 F1800.000 E1.00000
G1 X132.026 Y79.020 F1800.000 E2.44664
G1 F1800.000 E1.44664
G92 E0
G1 X123.105 Y93.185 F7800.000
G1 F1800.000 E1.00000
G1 X112.708 Y109.816 F1800.000 E2.69493
G1 X107.049 Y118.922 E3.62134
G1 X106.359 Y120.032 E3.73432
G1 X105.668 Y121.142 E3.84730
G1 X105.392 Y121.586 E3.89249
G1 X105.256 Y121.809 E3.91508
