; generated by Slic3r 0.8.4 on 2012-10-22 at 02:16:10

; layer_height = 0.2
; perimeters = 3
; solid_layers = 3
; fill_density = 0.25
; nozzle_diameter = 0.35
; filament_diameter = 1.75
; extrusion_multiplier = 1
; perimeter_speed = 30
; infill_speed = 60
; travel_speed = 130
; scale = 1
; single wall width = 0.49mm

M190 S50 ; wait for bed temperature to be reached
M104 S185 ; set temperature
G28 ; home all axes
M109 S185 ; wait for temperature to be reached
G90 ; use absolute coordinates
G21 ; set units to millimeters
G92 E0 ; reset extrusion distance
M82 ; use absolute distances for extrusion
M106 S89
G1 Z0.200 F7800.000
G1 X94.280 Y78.420
G1 F1800.000 E1.00000
G1 X94.670 Y78.040 F540.000 E1.02083
G1 X95.320 Y77.540 E1.05219
G1 X96.030 Y77.110 E1.08394
G1 X96.780 Y76.780 E1.11527
G1 X97.300 Y76.610 E1.13620
G1 X97.840 Y76.480 E1.15744
G1 X98.380 Y76.390 E1.17838
G1 X98.650 Y76.360 E1.18877
G1 X99.200 Y76.340 E1.20982
G1 X101.340 Y76.360 E1.29166
G1 X101.880 Y76.430 E1.31249
G1 X102.420 Y76.540 E1.33357
G1 X102.950 Y76.690 E1.35463
G1 X103.460 Y76.880 E1.37545
G1 X103.960 Y77.110 E1.39650
G1 X104.670 Y77.540 E1.42824
G1 X105.320 Y78.040 E1.45961
G1 X105.900 Y78.620 E1.49098
G1 X106.250 Y79.040 E1.51189
G1 X106.570 Y79.490 E1.53300
G1 X106.850 Y79.970 E1.55426
G1 X107.090 Y80.460 E1.57512
G1 X107.370 Y81.230 E1.60646
G1 X107.510 Y81.760 E1.62743
G1 X107.720 Y82.990 E1.67515
G1 X107.770 Y83.510 E1.69513
G1 X107.710 Y87.170 E1.83512
G1 X107.690 Y87.440 E1.84548
G1 X107.610 Y87.980 E1.86636
G1 X107.490 Y88.510 E1.88714
G1 X107.330 Y89.030 E1.90795
G1 X107.130 Y89.540 E1.92890
G1 X106.890 Y90.030 E1.94977
G1 X106.610 Y90.500 E1.97069
G1 X106.120 Y91.160 E2.00213
G1 X105.360 Y91.940 E2.04378
G1 X104.710 Y92.440 E2.07514
G1 X104.000 Y92.850 E2.10650
G1 X103.250 Y93.190 E2.13799
G1 X102.740 Y93.360 E2.15855
G1 X102.470 Y93.430 E2.16922
G1 X101.670 Y93.570 E2.20028
G1 X101.400 Y93.600 E2.21067
G1 X100.850 Y93.620 E2.23172
G1 X98.590 Y93.600 E2.31816
G1 X98.050 Y93.530 E2.33899
G1 X97.520 Y93.430 E2.35961
G1 X96.990 Y93.280 E2.38068
G1 X96.740 Y93.190 E2.39084
G1 X96.230 Y92.970 E2.41208
G1 X95.280 Y92.440 E2.45369
G1 X94.630 Y91.940 E2.48505
G1 X94.050 Y91.360 E2.51642
G1 X93.870 Y91.160 E2.52671
G1 X93.380 Y90.500 E2.55815
G1 X93.100 Y90.030 E2.57908
G1 X92.860 Y89.540 E2.59994
G1 X92.660 Y89.030 E2.62089
G1 X92.500 Y88.510 E2.64170
G1 X92.380 Y87.980 E2.66249
G1 X92.300 Y87.440 E2.68336
G1 X92.210 Y83.780 E2.82338
G1 X92.240 Y83.250 E2.84369
G1 X92.480 Y81.760 E2.90141
G1 X92.620 Y81.230 E2.92237
G1 X92.900 Y80.460 E2.95371
G1 X93.140 Y79.970 E2.97458
G1 X93.420 Y79.490 E2.99583
G1 X93.740 Y79.040 E3.01695
G1 X94.090 Y78.620 E3.03786
G1 X94.229 Y78.473 E3.04560
G1 X94.480 Y78.830 F7800.000
G1 X94.860 Y78.460 F540.000 E3.06588
G1 X95.260 Y78.120 E3.08596
G1 X95.920 Y77.670 E3.11651
G1 X96.390 Y77.420 E3.13687
G1 X96.870 Y77.210 E3.15691
G1 X97.370 Y77.040 E3.17710
G1 X97.890 Y76.910 E3.19760
G1 X98.410 Y76.820 E3.21779
G1 X99.200 Y76.770 E3.24806
G1 X101.050 Y76.780 E3.31882
G1 X101.580 Y76.820 E3.33915
G1 X102.100 Y76.910 E3.35933
G1 X102.620 Y77.040 E3.37983
G1 X103.120 Y77.210 E3.40003
G1 X103.840 Y77.540 E3.43032
G1 X104.290 Y77.810 E3.45039
G1 X104.730 Y78.120 E3.47097
G1 X105.130 Y78.460 E3.49105
G1 X105.510 Y78.830 E3.51134
G1 X106.010 Y79.450 E3.54180
G1 X106.160 Y79.660 E3.55167
G1 X106.560 Y80.350 E3.58217
G1 X106.860 Y81.080 E3.61236
G1 X106.950 Y81.340 E3.62288
G1 X107.080 Y81.850 E3.64301
G1 X107.290 Y83.040 E3.68922
G1 X107.320 Y83.290 E3.69885
G1 X107.270 Y87.150 E3.84649
G1 X107.220 Y87.670 E3.86647
G1 X107.180 Y87.930 E3.87653
G1 X106.990 Y88.690 E3.90649
G1 X106.810 Y89.190 E3.92682
G1 X106.590 Y89.660 E3.94667
G1 X106.190 Y90.340 E3.97684
G1 X106.040 Y90.560 E3.98702
G1 X105.540 Y91.160 E4.01689
G1 X105.160 Y91.530 E4.03718
G1 X104.550 Y92.020 E4.06710
G1 X103.880 Y92.430 E4.09714
G1 X103.160 Y92.760 E4.12743
G1 X102.910 Y92.850 E4.13760
G1 X102.150 Y93.050 E4.16765
G1 X101.640 Y93.140 E4.18746
G1 X100.850 Y93.190 E4.21773
G1 X98.880 Y93.180 E4.29308
G1 X98.350 Y93.140 E4.31341
G1 X97.580 Y92.990 E4.34341
G1 X97.080 Y92.850 E4.36327
G1 X96.590 Y92.660 E4.38337
G1 X96.110 Y92.430 E4.40372
G1 X95.440 Y92.020 E4.43376
G1 X94.830 Y91.530 E4.46369
G1 X94.450 Y91.160 E4.48397
G1 X93.950 Y90.560 E4.51384
G1 X93.660 Y90.120 E4.53400
G1 X93.400 Y89.660 E4.55421
G1 X93.180 Y89.190 E4.57405
G1 X93.000 Y88.690 E4.59438
G1 X92.810 Y87.930 E4.62434
G1 X92.740 Y87.410 E4.64441
G1 X92.650 Y83.790 E4.78290
G1 X92.670 Y83.290 E4.80204
G1 X92.910 Y81.850 E4.85787
G1 X93.040 Y81.340 E4.87800
G1 X93.320 Y80.590 E4.90862
G1 X93.430 Y80.350 E4.91871
G1 X93.830 Y79.660 E4.94922
G1 X94.310 Y79.030 E4.97951
G1 X94.432 Y78.886 E4.98674
G1 F1800.000 E3.98674
G1 Z0.400 F7800.000
G92 E0
G1 X99.580 Y85.027
G1 Z0.200
G1 F1800.000 E1.00000
G1 X99.865 Y85.072 F540.000 E1.01102
G1 X99.932 Y85.078 E1.01362
G1 X100.000 Y85.080 E1.01621
G1 X100.068 Y85.078 E1.01881
G1 X100.135 Y85.072 E1.02140
G1 X100.420 Y85.027 E1.03242
G1 X100.420 Y86.320 E1.08189
G1 X99.580 Y86.320 E1.11401
G1 X99.580 Y85.100 E1.16066
G1 X99.763 Y84.600 F7800.000
G1 X99.801 Y84.614 F540.000 E1.16221
G1 X99.840 Y84.625 E1.16376
G1 X99.879 Y84.634 E1.16531
G1 X99.919 Y84.640 E1.16686
G1 X99.960 Y84.644 E1.16841
G1 X100.000 Y84.645 E1.16996
G1 X100.041 Y84.644 E1.17151
G1 X100.081 Y84.640 E1.17306
G1 X100.121 Y84.634 E1.17461
G1 X100.160 Y84.625 E1.17616
G1 X100.199 Y84.614 E1.17771
G1 X100.237 Y84.600 E1.17926
G1 X100.275 Y84.584 E1.18081
G1 X100.311 Y84.565 E1.18236
G1 X100.346 Y84.545 E1.18391
G1 X100.379 Y84.522 E1.18546
G1 X100.411 Y84.497 E1.18701
G1 X100.442 Y84.470 E1.18856
G1 X100.668 Y84.244 E1.20082
G1 X100.855 Y84.321 E1.20855
G1 X100.855 Y86.755 E1.30165
G1 X99.145 Y86.755 E1.36705
G1 X99.145 Y84.321 E1.46014
G1 X99.332 Y84.244 E1.46787
G1 X99.558 Y84.470 E1.48013
G1 X99.589 Y84.497 E1.48168
G1 X99.621 Y84.522 E1.48323
G1 X99.654 Y84.545 E1.48478
G1 X99.689 Y84.565 E1.48633
G1 X99.696 Y84.569 E1.48662
G1 X100.489 Y83.970 F7800.000
G1 X100.508 Y84.011 F540.000 E1.48835
G1 X100.489 Y83.970 F7800.000
G1 X100.676 Y83.535 F540.000 E1.50643
G1 X100.617 Y83.388 E1.51249
G1 X100.000 Y83.247 E1.53668
G1 X99.376 Y83.380 E1.56108
G1 X99.202 Y83.214 E1.57027
G1 X99.376 Y83.380 F7800.000
G1 X99.239 Y83.633 F540.000 E1.58130
G1 X99.082 Y83.904 E1.59326
G1 X99.418 Y83.658 F7800.000
G1 X99.497 Y83.968 F540.000 E1.60548
G1 X99.418 Y83.658 F7800.000
G1 X99.328 Y83.531 F540.000 E1.61145
G1 X100.617 Y83.388 F7800.000
G1 X100.733 Y83.252 F540.000 E1.61831
G1 X100.798 Y83.214 E1.62118
G1 X100.676 Y83.535 F7800.000
G1 X100.761 Y83.633 F540.000 E1.62614
G1 X100.918 Y83.904 E1.63811
G1 F1800.000 E0.63811
G1 Z0.600 F7800.000
G92 E0
G1 X100.420 Y85.027
G1 Z0.400
G1 F1800.000 E1.00000
G1 X100.420 Y86.120 F1800.000 E1.04181
G1 X99.580 Y86.120 E1.07394
G1 X99.580 Y85.124 E1.11202
G1 X100.135 Y85.072 E1.13336
G1 X100.347 Y85.038 E1.14156
G1 X100.199 Y84.614 F7800.000
G1 X100.237 Y84.600 F1800.000 E1.14311
G1 X100.275 Y84.584 E1.14466
G1 X100.311 Y84.565 E1.14621
G1 X100.346 Y84.545 E1.14776
G1 X100.379 Y84.522 E1.14931
G1 X100.411 Y84.497 E1.15086
G1 X100.442 Y84.470 E1.15241
G1 X100.668 Y84.244 E1.16467
G1 X100.855 Y84.321 E1.17240
G1 X100.855 Y86.555 E1.25785
G1 X99.145 Y86.555 E1.32325
G1 X99.145 Y84.321 E1.40869
G1 X99.332 Y84.244 E1.41642
G1 X99.558 Y84.470 E1.42868
G1 X99.589 Y84.497 E1.43023
G1 X99.621 Y84.522 E1.43178
G1 X99.654 Y84.545 E1.43333
G1 X99.689 Y84.565 E1.43488
G1 X99.725 Y84.584 E1.43643
G1 X99.763 Y84.600 E1.43798
G1 X99.801 Y84.614 E1.43953
G1 X99.840 Y84.625 E1.44108
G1 X99.879 Y84.634 E1.44263
G1 X99.919 Y84.640 E1.44418
G1 X99.960 Y84.644 E1.44573
G1 X100.000 Y84.645 E1.44728
G1 X100.040 Y84.644 E1.44883
G1 X100.072 Y84.641 E1.45003
G1 X100.072 Y84.641 E1.45003
G1 X100.081 Y84.640 E1.45038
G1 X100.121 Y84.634 E1.45193
G1 X100.128 Y84.632 E1.45222
G1 X100.489 Y83.971 F7800.000
G1 X100.507 Y84.010 F1800.000 E1.45387
G1 X100.489 Y83.971 F7800.000
G1 X100.676 Y83.535 F1800.000 E1.47199
G1 X100.617 Y83.388 E1.47806
G1 X100.000 Y83.247 E1.50225
G1 X99.376 Y83.380 E1.52664
G1 X99.202 Y83.214 E1.53584
G1 X99.376 Y83.380 F7800.000
G1 X99.239 Y83.633 F1800.000 E1.54687
G1 X99.082 Y83.904 E1.55883
G1 X99.418 Y83.658 F7800.000
G1 X99.497 Y83.968 F1800.000 E1.57105
G1 X99.418 Y83.658 F7800.000
G1 X99.328 Y83.531 F1800.000 E1.57701
G1 X100.617 Y83.388 F7800.000
G1 X100.733 Y83.252 F1800.000 E1.58388
G1 X100.798 Y83.214 E1.58675
G1 X100.676 Y83.535 F7800.000
G1 X100.761 Y83.633 F1800.000 E1.59171
G1 X100.918 Y83.904 E1.60367
G1 F1800.000 E0.60367
G1 Z0.800 F7800.000
G92 E0
G1 X100.420 Y85.027
G1 Z0.600
G1 F1800.000 E1.00000
G1 X100.420 Y85.920 F1800.000 E1.03417
G1 X99.580 Y85.920 E1.06629
G1 X99.580 Y85.027 E1.10046
G1 X99.865 Y85.072 E1.11147
G1 X99.932 Y85.078 E1.11407
G1 X100.000 Y85.080 E1.11667
G1 X100.068 Y85.078 E1.11926
G1 X100.135 Y85.072 E1.12186
G1 X100.347 Y85.038 E1.13007
G1 X100.199 Y84.614 F7800.000
G1 X100.237 Y84.600 F1800.000 E1.13162
G1 X100.275 Y84.584 E1.13317
G1 X100.311 Y84.565 E1.13472
G1 X100.346 Y84.545 E1.13627
G1 X100.379 Y84.522 E1.13782
G1 X100.411 Y84.497 E1.13937
G1 X100.442 Y84.470 E1.14092
G1 X100.668 Y84.244 E1.15318
G1 X100.855 Y84.321 E1.16091
G1 X100.855 Y86.355 E1.23870
G1 X99.145 Y86.355 E1.30410
G1 X99.145 Y84.321 E1.38190
G1 X99.332 Y84.244 E1.38963
G1 X99.558 Y84.470 E1.40189
G1 X99.589 Y84.497 E1.40344
G1 X99.621 Y84.522 E1.40499
G1 X99.654 Y84.545 E1.40654
G1 X99.689 Y84.565 E1.40809
G1 X99.725 Y84.584 E1.40964
G1 X99.763 Y84.600 E1.41119
G1 X99.801 Y84.614 E1.41274
G1 X99.840 Y84.625 E1.41429
G1 X99.879 Y84.634 E1.41584
G1 X99.919 Y84.640 E1.41739
G1 X99.960 Y84.644 E1.41894
G1 X100.000 Y84.645 E1.42049
G1 X100.041 Y84.644 E1.42204
G1 X100.081 Y84.640 E1.42359
G1 X100.121 Y84.634 E1.42514
G1 X100.128 Y84.632 E1.42543
G1 X100.489 Y83.970 F7800.000
G1 X100.508 Y84.011 F1800.000 E1.42716
G1 X100.489 Y83.970 F7800.000
G1 X100.676 Y83.535 F1800.000 E1.44523
G1 X100.617 Y83.388 E1.45130
G1 X100.000 Y83.247 E1.47549
G1 X99.376 Y83.380 E1.49989
G1 X99.202 Y83.214 E1.50908
G1 X99.376 Y83.380 F7800.000
G1 X99.239 Y83.633 F1800.000 E1.52011
G1 X99.082 Y83.904 E1.53207
G1 X99.418 Y83.658 F7800.000
G1 X99.497 Y83.968 F1800.000 E1.54429
G1 X99.418 Y83.658 F7800.000
G1 X99.328 Y83.531 F1800.000 E1.55025
G1 X100.617 Y83.388 F7800.000
G1 X100.733 Y83.252 F1800.000 E1.55712
G1 X100.798 Y83.214 E1.55999
G1 X100.676 Y83.535 F7800.000
G1 X100.761 Y83.633 F1800.000 E1.56495
G1 X100.918 Y83.904 E1.57691
G1 F1800.000 E0.57691
G1 Z1.000 F7800.000
G92 E0
G1 X100.420 Y85.045
G1 Z0.800
G1 F1800.000 E1.00000
G1 X100.420 Y85.720 F1800.000 E1.02582
G1 X99.580 Y85.720 E1.05794
G1 X99.580 Y85.160 E1.07936
G1 X100.135 Y85.072 E1.10087
G1 X100.347 Y85.052 E1.10899
G1 X100.199 Y84.614 F7800.000
G1 X100.237 Y84.600 F1800.000 E1.11054
G1 X100.275 Y84.584 E1.11209
G1 X100.311 Y84.565 E1.11364
G1 X100.346 Y84.545 E1.11519
G1 X100.379 Y84.522 E1.11674
G1 X100.411 Y84.497 E1.11829
G1 X100.442 Y84.470 E1.11984
G1 X100.668 Y84.244 E1.13210
G1 X100.855 Y84.321 E1.13983
G1 X100.855 Y86.155 E1.20998
G1 X99.145 Y86.155 E1.27538
G1 X99.145 Y84.321 E1.34552
G1 X99.332 Y84.244 E1.35325
G1 X99.558 Y84.470 E1.36551
G1 X99.589 Y84.497 E1.36706
G1 X99.621 Y84.522 E1.36861
G1 X99.654 Y84.545 E1.37016
G1 X99.689 Y84.565 E1.37171
G1 X99.725 Y84.584 E1.37326
G1 X99.763 Y84.600 E1.37481
G1 X99.801 Y84.614 E1.37636
G1 X99.840 Y84.625 E1.37791
G1 X99.879 Y84.634 E1.37946
G1 X99.919 Y84.640 E1.38101
G1 X99.960 Y84.644 E1.38256
G1 X100.000 Y84.645 E1.38411
G1 X100.041 Y84.644 E1.38566
G1 X100.065 Y84.641 E1.38662
G1 X100.065 Y84.641 E1.38662
G1 X100.081 Y84.640 E1.38721
G1 X100.106 Y84.636 E1.38817
G1 X100.106 Y84.636 E1.38817
G1 X100.121 Y84.634 E1.38876
G1 X100.128 Y84.632 E1.38905
G1 X100.489 Y83.970 F7800.000
G1 X100.508 Y84.011 F1800.000 E1.39078
G1 X100.489 Y83.970 F7800.000
G1 X100.676 Y83.536 F1800.000 E1.40886
G1 X100.617 Y83.388 E1.41492
G1 X100.000 Y83.247 E1.43912
G1 X99.376 Y83.380 E1.46351
G1 X99.202 Y83.214 E1.47270
G1 X99.376 Y83.380 F7800.000
G1 X99.239 Y83.633 F1800.000 E1.48373
G1 X99.082 Y83.904 E1.49569
G1 X99.418 Y83.658 F7800.000
G1 X99.497 Y83.968 F1800.000 E1.50791
G1 X99.418 Y83.658 F7800.000
G1 X99.328 Y83.531 F1800.000 E1.51388
G1 X100.617 Y83.388 F7800.000
G1 X100.733 Y83.252 F1800.000 E1.52074
G1 X100.798 Y83.214 E1.52361
G1 X100.676 Y83.536 F7800.000
G1 X100.761 Y83.633 F1800.000 E1.52857
G1 X100.918 Y83.904 E1.54054
G1 F1800.000 E0.54054
G1 Z1.200 F7800.000
G92 E0
G1 X100.668 Y84.244
G1 Z1.000
G1 F1800.000 E1.00000
G1 X100.855 Y84.321 F1800.000 E1.00773
G1 X100.855 Y85.955 E1.07023
G1 X99.145 Y85.955 E1.13563
G1 X99.145 Y84.321 E1.19812
G1 X99.332 Y84.244 E1.20585
G1 X99.558 Y84.470 E1.21811
G1 X99.589 Y84.497 E1.21967
G1 X99.621 Y84.522 E1.22122
G1 X99.654 Y84.545 E1.22277
G1 X99.689 Y84.565 E1.22431
G1 X99.725 Y84.584 E1.22586
G1 X99.763 Y84.600 E1.22741
G1 X99.801 Y84.614 E1.22897
G1 X99.840 Y84.625 E1.23052
G1 X99.879 Y84.634 E1.23206
G1 X99.919 Y84.640 E1.23361
G1 X99.960 Y84.644 E1.23516
G1 X100.000 Y84.645 E1.23671
G1 X100.040 Y84.644 E1.23826
G1 X100.081 Y84.640 E1.23981
G1 X100.121 Y84.634 E1.24136
G1 X100.160 Y84.625 E1.24291
G1 X100.199 Y84.614 E1.24446
G1 X100.220 Y84.606 E1.24530
G1 X100.220 Y84.606 E1.24530
G1 X100.237 Y84.600 E1.24601
G1 X100.258 Y84.591 E1.24685
G1 X100.258 Y84.591 E1.24685
G1 X100.275 Y84.584 E1.24756
G1 X100.311 Y84.565 E1.24911
G1 X100.346 Y84.545 E1.25066
G1 X100.379 Y84.522 E1.25221
G1 X100.411 Y84.497 E1.25376
G1 X100.442 Y84.470 E1.25531
G1 X100.616 Y84.296 E1.26476
G1 X100.489 Y83.970 F7800.000
G1 X100.508 Y84.011 F1800.000 E1.26650
G1 X100.489 Y83.970 F7800.000
G1 X100.676 Y83.536 F1800.000 E1.28457
G1 X100.617 Y83.388 E1.29064
G1 X100.000 Y83.247 E1.31483
G1 X99.376 Y83.380 E1.33922
G1 X99.202 Y83.214 E1.34842
G1 X99.376 Y83.380 F7800.000
G1 X99.239 Y83.633 F1800.000 E1.35944
G1 X99.082 Y83.904 E1.37141
G1 X99.418 Y83.658 F7800.000
G1 X99.497 Y83.968 F1800.000 E1.38363
G1 X99.418 Y83.658 F7800.000
G1 X99.328 Y83.531 F1800.000 E1.38959
G1 X100.617 Y83.388 F7800.000
G1 X100.733 Y83.252 F1800.000 E1.39646
G1 X100.798 Y83.214 E1.39933
G1 X100.676 Y83.536 F7800.000
G1 X100.761 Y83.633 F1800.000 E1.40429
G1 X100.918 Y83.904 E1.41625
G1 X100.233 Y85.270 F7800.000
G1 X99.895 Y85.371 F3600.000 E1.42974
G1 X99.734 Y85.373 E1.43589
G1 X99.666 Y85.257 E1.44104
G1 X99.677 Y85.218 E1.44260
G1 F1800.000 E0.44260
G1 Z1.400 F7800.000
G92 E0
G1 X99.840 Y84.625
G1 Z1.200
G1 F1800.000 E1.00000
G1 X99.879 Y84.634 F1800.000 E1.00155
G1 X99.919 Y84.640 E1.00310
G1 X99.960 Y84.644 E1.00465
G1 X100.000 Y84.645 E1.00620
G1 X100.040 Y84.644 E1.00775
G1 X100.081 Y84.640 E1.00930
G1 X100.121 Y84.634 E1.01085
G1 X100.160 Y84.625 E1.01240
G1 X100.199 Y84.614 E1.01395
G1 X100.237 Y84.600 E1.01550
G1 X100.255 Y84.592 E1.01621
G1 X100.255 Y84.592 E1.01621
G1 X100.275 Y84.584 E1.01705
G1 X100.311 Y84.565 E1.01860
G1 X100.346 Y84.545 E1.02015
G1 X100.379 Y84.522 E1.02170
G1 X100.411 Y84.497 E1.02325
G1 X100.442 Y84.470 E1.02480
G1 X100.668 Y84.244 E1.03706
G1 X100.855 Y84.321 E1.04479
G1 X100.855 Y85.755 E1.09964
G1 X99.145 Y85.755 E1.16504
G1 X99.145 Y84.321 E1.21988
G1 X99.332 Y84.244 E1.22761
G1 X99.558 Y84.470 E1.23987
G1 X99.589 Y84.497 E1.24143
G1 X99.621 Y84.522 E1.24298
G1 X99.654 Y84.545 E1.24453
G1 X99.689 Y84.565 E1.24608
G1 X99.725 Y84.584 E1.24762
G1 X99.763 Y84.600 E1.24917
G1 X99.770 Y84.602 E1.24946
G1 X100.489 Y83.970 F7800.000
G1 X100.508 Y84.011 F1800.000 E1.25120
G1 X100.489 Y83.970 F7800.000
G1 X100.676 Y83.536 F1800.000 E1.26927
G1 X100.617 Y83.388 E1.27534
G1 X100.000 Y83.247 E1.29953
G1 X99.376 Y83.380 E1.32393
G1 X99.202 Y83.214 E1.33312
G1 X99.376 Y83.380 F7800.000
G1 X99.239 Y83.633 F1800.000 E1.34415
G1 X99.082 Y83.904 E1.35611
G1 X99.418 Y83.658 F7800.000
G1 X99.497 Y83.968 F1800.000 E1.36833
G1 X99.418 Y83.658 F7800.000
G1 X99.328 Y83.531 F1800.000 E1.37429
G1 X100.617 Y83.388 F7800.000
G1 X100.733 Y83.252 F1800.000 E1.38116
G1 X100.798 Y83.214 E1.38403
G1 X100.676 Y83.536 F7800.000
